X:30
T:Edinborough Hornpipe. WCa.30
M:C|
L:1/8
Q:1/2=90
S:Wm. Calvert MS, 1812, Leyburn, Yorks.
R:.hornpipe
O:England
A:North Yorkshire
Z:vmp.Chris Partington, May 2003
K:D
AG|FAdf gece|d2A2A2GF|GABA BAGF|E2C2C2AG|!
FAdf gece|d2A2A2(GF)|GBAG FEDC|D2D2D2:|!
|:ed|c2A2A2ed|c2A2A2(ef)|gefd edcB|BABG GFED|!
FAFA GBGB|EGEG FAFA|gege fdfc|d2d2d2:|!
|:”_sic”AG|D2D2D2D2|FGAB BAGF|A,2A,2A,2A,2|EFGA GFED|!
d2fdA2dA|G2BGF2AF|GBAG FEDC|D2D2D2:||

